mobile/24/svg/location-slash-24.svg

<svg width="24" height="24" viewBox="0 0 24 24" fill="none" xmlns="http://www.w3.org/2000/svg">
<path d="M7.12799 5.73695C8.38899 4.51095 10.106 3.75195 12 3.75195C15.858 3.75195 18.997 6.89095 18.997 10.749C18.997 11.93 18.22 13.555 16.811 15.419L18.057 16.665C19.563 14.713 20.747 12.595 20.747 10.749C20.747 5.92595 16.823 2.00195 12 2.00195C9.62399 2.00195 7.46899 2.95695 5.89099 4.49995L7.12799 5.73695Z" fill="black"/>
<path fill-rule="evenodd" clip-rule="evenodd" d="M15.8496 16.6121L6.15267 6.91523L6.16605 6.89494L4.91305 5.64294L4.89937 5.66193L3.23768 4.00024L2.00024 5.23768L3.99722 7.23465C3.51993 8.31034 3.25305 9.49843 3.25305 10.7489C3.25305 14.3199 7.67605 18.9169 10.3141 21.3399C10.7951 21.7809 11.3971 22.0019 12.0011 22.0019C12.6051 22.0019 13.2071 21.7809 13.6881 21.3399C14.3504 20.7314 15.1256 19.9854 15.9153 19.1527L18.7622 21.9997L19.9997 20.7622L17.091 17.8536L17.1071 17.8349L15.8651 16.5939L15.8496 16.6121ZM14.6774 17.9149C14.0184 18.6116 13.2922 19.3263 12.5031 20.0509C12.2161 20.3149 11.7841 20.3149 11.4971 20.0509C7.43105 16.3149 5.00305 12.8379 5.00305 10.7489C5.00305 9.99337 5.12411 9.26623 5.34726 8.5847L14.6774 17.9149Z" fill="black"/>
<path d="M10.537 9.14592C10.903 8.75092 11.421 8.49992 12 8.49992C13.103 8.49992 14 9.39692 14 10.4999C14 11.0789 13.749 11.5969 13.354 11.9629L14.591 13.1999C15.302 12.5169 15.75 11.5619 15.75 10.5009C15.75 8.43392 14.068 6.75092 12 6.75092C10.938 6.75092 9.98305 7.19892 9.30005 7.90992L10.537 9.14592Z" fill="black"/>
</svg>

<svg width="24" height="24" fill="none" xmlns="http://www.w3.org/2000/svg"><path d="M7.128 5.737A6.969 6.969 0 0 1 12 3.752a7.005 7.005 0 0 1 6.997 6.997c0 1.181-.777 2.806-2.186 4.67l1.246 1.246c1.506-1.952 2.69-4.07 2.69-5.916 0-4.823-3.924-8.747-8.747-8.747A8.714 8.714 0 0 0 5.891 4.5l1.237 1.237z" fill="#000"/><path fill-rule="evenodd" clip-rule="evenodd" d="M15.85 16.612 6.153 6.915l.013-.02-1.253-1.252-.014.019L3.238 4 2 5.238l1.997 1.997a8.641 8.641 0 0 0-.744 3.514c0 3.57 4.423 8.168 7.061 10.59a2.488 2.488 0 0 0 1.687.663c.604 0 1.206-.221 1.687-.662a45.793 45.793 0 0 0 2.227-2.187L18.762 22 20 20.762l-2.909-2.908.016-.02-1.242-1.24-.015.018zm-1.173 1.303a43.43 43.43 0 0 1-2.174 2.136.738.738 0 0 1-1.006 0c-4.066-3.736-6.494-7.213-6.494-9.302 0-.756.121-1.483.344-2.164l9.33 9.33z" fill="#000"/><path d="M10.537 9.146A1.99 1.99 0 0 1 12 8.5c1.103 0 2 .897 2 2a1.99 1.99 0 0 1-.646 1.463l1.237 1.237a3.733 3.733 0 0 0 1.159-2.7A3.755 3.755 0 0 0 12 6.75a3.734 3.734 0 0 0-2.7 1.16l1.237 1.236z" fill="#000"/></svg>
